X: 26238
T: Meelick Team, The
R: jig
M: 6/8
K: Edorian
|:A|B2 e dBA|BAG EDB,|DEG Bed|BAG ABd|
e/f/ge dBA|BAG EDB,|DEG Bed|BAF E2:|
|:B|e2 f gfe|beg fed|Bde gfg|fed e2 f|
g2 f edB|AFD FGA|dc/d/e fed|BAF E2:|

